X:408
T:Reel 408
M:4/4
K:Gmaj
L:1/8
d2de dBGB|cedB cAAf|f2dB GBdB|cedc BGGf|g2dB GBdB|cBAB cege| (3bc'd'  (3c'ba gffe|decA BGG2|g2bg dgbg|abag abc'a|g2bg dgbg|agac' bgg2|g2bg dgbg|dgbg abc'a|gbaf gedc|BdAc BGG2|
